src/pos-icons/gender-male-female.svg

<svg height="24" viewBox="0 0 24 24" width="24" xmlns="http://www.w3.org/2000/svg"><path d="m17.58 4h-3.58v-2h7v7h-2v-3.59l-3.83 3.83c.52.79.83 1.76.83 2.76 0 2.42-1.72 4.44-4 4.9v2.1h2v2h-2v2h-2v-2h-2v-2h2v-2.1c-2.28-.46-4-2.48-4-4.9a5 5 0 0 1 5-5c1 0 1.96.3 2.75.83zm-6.58 5a3 3 0 0 0 -3 3 3 3 0 0 0 3 3 3 3 0 0 0 3-3 3 3 0 0 0 -3-3z"/></svg>

<?xml version="1.0" encoding="UTF-8"?><!DOCTYPE svg PUBLIC "-//W3C//DTD SVG 1.1//EN" "http://www.w3.org/Graphics/SVG/1.1/DTD/svg11.dtd"><svg xmlns="http://www.w3.org/2000/svg" xmlns:xlink="http://www.w3.org/1999/xlink" version="1.1" id="mdi-gender-male-female" width="24" height="24" viewBox="0 0 24 24"><path d="M17.58,4H14V2H21V9H19V5.41L15.17,9.24C15.69,10.03 16,11 16,12C16,14.42 14.28,16.44 12,16.9V19H14V21H12V23H10V21H8V19H10V16.9C7.72,16.44 6,14.42 6,12A5,5 0 0,1 11,7C12,7 12.96,7.3 13.75,7.83L17.58,4M11,9A3,3 0 0,0 8,12A3,3 0 0,0 11,15A3,3 0 0,0 14,12A3,3 0 0,0 11,9Z" /></svg>
